gama.ui.shared/icons_svg/dark/navigator/menu.import.svg

<svg height="25" viewBox="-418.997 -3555.419 25 25" width="25" xmlns="http://www.w3.org/2000/svg"><g fill="none"><path d="m-414.65697-3554.9187h16.32c2.12077 0 3.84 1.7192 3.84 3.84v16.32c0 2.1207-1.71923 3.84-3.84 3.84h-16.32c-2.12077 0-3.84-1.7193-3.84-3.84v-16.32c0-2.1208 1.71923-3.84 3.84-3.84z" fill="#666"/><path d="m-414.65697-3554.9187h16.32c2.12077 0 3.84 1.7192 3.84 3.84v16.32c0 2.1207-1.71923 3.84-3.84 3.84h-16.32c-2.12077 0-3.84-1.7193-3.84-3.84v-16.32c0-2.1208 1.71923-3.84 3.84-3.84z" stroke="#fff" stroke-linecap="round" stroke-linejoin="round" stroke-width=".25"/><path d="m-405.6409-3540.567 1.80754-1.8073c.16443-.1645.43103-.1645.59546 0 .16443.1643.16443.431 0 .5953l-2.5263 2.5264c-.16445.1646-.43104.1646-.59547 0l-2.52633-2.5264c-.1644-.1643-.1644-.431 0-.5953.16444-.1645.43104-.1645.59547 0l1.80753 1.8073v-9.0885c0-.2325.1885-.4211.42105-.4211s.42105.1886.42105.4211zm4.6316-6.9833c-.23255 0-.42107-.1887-.42107-.421 0-.2327.18852-.4211.42107-.4211h.8421c1.1627 0 2.10525.9424 2.10525 2.1054v8.421c0 1.1626-.94255 2.105-2.10525 2.105h-11.7895c-1.1627 0-2.10525-.9424-2.10525-2.105v-8.421c0-1.163.94255-2.1054 2.10525-2.1054h.8421c.23256 0 .4211.1884.4211.4211 0 .2323-.18854.421-.4211.421h-.8421c-.6976 0-1.26314.5656-1.26314 1.2633v8.421c0 .6976.56554 1.263 1.26314 1.263h11.7895c.6976 0 1.26315-.5654 1.26315-1.263v-8.421c0-.6977-.56555-1.2633-1.26315-1.2633z" fill="#c0e0ff"/></g></svg>

<?xml version="1.0" encoding="UTF-8" standalone="no"?>
<!DOCTYPE svg PUBLIC "-//W3C//DTD SVG 1.1//EN" "http://www.w3.org/Graphics/SVG/1.1/DTD/svg11.dtd">
<svg xmlns="http://www.w3.org/2000/svg" xmlns:xl="http://www.w3.org/1999/xlink" version="1.1" xmlns:dc="http://purl.org/dc/elements/1.1/" viewBox="-418.99697 -3555.4187 25 25" width="25" height="25">
  <defs/>
  <g id="SOURCES" stroke-opacity="1" fill="none" stroke="none" fill-opacity="1" stroke-dasharray="none">
    <title>SOURCES</title>
    <g id="SOURCES_Dark">
      <title>Dark</title>
      <g id="Graphic_11724">
        <title>views/view.other</title>
        <path d="M -414.65697 -3554.9187 L -398.33697 -3554.9187 C -396.2162 -3554.9187 -394.49697 -3553.1995 -394.49697 -3551.0787 L -394.49697 -3534.7587 C -394.49697 -3532.638 -396.2162 -3530.9187 -398.33697 -3530.9187 L -414.65697 -3530.9187 C -416.77774 -3530.9187 -418.49697 -3532.638 -418.49697 -3534.7587 L -418.49697 -3551.0787 C -418.49697 -3553.1995 -416.77774 -3554.9187 -414.65697 -3554.9187 Z" fill="#666"/>
        <path d="M -414.65697 -3554.9187 L -398.33697 -3554.9187 C -396.2162 -3554.9187 -394.49697 -3553.1995 -394.49697 -3551.0787 L -394.49697 -3534.7587 C -394.49697 -3532.638 -396.2162 -3530.9187 -398.33697 -3530.9187 L -414.65697 -3530.9187 C -416.77774 -3530.9187 -418.49697 -3532.638 -418.49697 -3534.7587 L -418.49697 -3551.0787 C -418.49697 -3553.1995 -416.77774 -3554.9187 -414.65697 -3554.9187 Z" stroke="white" stroke-linecap="round" stroke-linejoin="round" stroke-width=".25"/>
      </g>
      <g id="Graphic_11723">
        <path d="M -405.6409 -3540.567 L -403.83336 -3542.3743 C -403.66893 -3542.5388 -403.40233 -3542.5388 -403.2379 -3542.3743 C -403.07347 -3542.21 -403.07347 -3541.9433 -403.2379 -3541.779 L -405.7642 -3539.2526 C -405.92865 -3539.088 -406.19524 -3539.088 -406.35967 -3539.2526 L -408.886 -3541.779 C -409.0504 -3541.9433 -409.0504 -3542.21 -408.886 -3542.3743 C -408.72156 -3542.5388 -408.45496 -3542.5388 -408.29053 -3542.3743 L -406.483 -3540.567 L -406.483 -3549.6555 C -406.483 -3549.888 -406.2945 -3550.0766 -406.06195 -3550.0766 C -405.8294 -3550.0766 -405.6409 -3549.888 -405.6409 -3549.6555 L -405.6409 -3540.567 Z M -401.0093 -3547.5503 C -401.24185 -3547.5503 -401.43037 -3547.739 -401.43037 -3547.9713 C -401.43037 -3548.204 -401.24185 -3548.3924 -401.0093 -3548.3924 L -400.1672 -3548.3924 C -399.0045 -3548.3924 -398.06195 -3547.45 -398.06195 -3546.287 L -398.06195 -3537.866 C -398.06195 -3536.7034 -399.0045 -3535.761 -400.1672 -3535.761 L -411.9567 -3535.761 C -413.1194 -3535.761 -414.06195 -3536.7034 -414.06195 -3537.866 L -414.06195 -3546.287 C -414.06195 -3547.45 -413.1194 -3548.3924 -411.9567 -3548.3924 L -411.1146 -3548.3924 C -410.88204 -3548.3924 -410.6935 -3548.204 -410.6935 -3547.9713 C -410.6935 -3547.739 -410.88204 -3547.5503 -411.1146 -3547.5503 L -411.9567 -3547.5503 C -412.6543 -3547.5503 -413.21984 -3546.9847 -413.21984 -3546.287 L -413.21984 -3537.866 C -413.21984 -3537.1684 -412.6543 -3536.603 -411.9567 -3536.603 L -400.1672 -3536.603 C -399.4696 -3536.603 -398.90405 -3537.1684 -398.90405 -3537.866 L -398.90405 -3546.287 C -398.90405 -3546.9847 -399.4696 -3547.5503 -400.1672 -3547.5503 Z" fill="#c0e0ff"/>
      </g>
    </g>
  </g>
</svg>
